UNB/img/gas-shop/googlePay.svg

<svg width="73" height="53" viewBox="0 0 73 53" fill="none" xmlns="http://www.w3.org/2000/svg">
<rect width="72.9723" height="52.4143" transform="translate(0.0273438)" fill="#F0F7FF"/>
<path fill-rule="evenodd" clip-rule="evenodd" d="M34.4871 33.9111V27.502H37.7379C39.0699 27.502 40.1943 27.0478 41.1108 26.1521L41.3308 25.925C43.0051 24.0704 42.8951 21.1813 41.1108 19.4655C40.2187 18.5571 38.9966 18.065 37.7379 18.0903H32.5195V33.9111H34.4871ZM34.4882 25.5584V20.0324H37.7884C38.4973 20.0324 39.1696 20.31 39.6707 20.8147C40.7341 21.8744 40.7585 23.6407 39.7318 24.7383C39.2307 25.2808 38.5218 25.5836 37.7884 25.5584H34.4882ZM50.5075 23.9316C49.6643 23.1368 48.5155 22.7331 47.0612 22.7331C45.1914 22.7331 43.786 23.4396 42.8572 24.84L44.5926 25.9628C45.2281 25.004 46.0958 24.5246 47.1957 24.5246C47.8923 24.5246 48.5644 24.7895 49.0899 25.269C49.6032 25.7231 49.8965 26.3792 49.8965 27.0731V27.5399C49.1388 27.1109 48.1856 26.8838 47.0123 26.8838C45.6436 26.8838 44.5437 27.2119 43.7249 27.8805C42.9061 28.5492 42.4906 29.4323 42.4906 30.5552C42.4662 31.5771 42.8939 32.5485 43.6516 33.2046C44.4215 33.9111 45.3992 34.2644 46.548 34.2644C47.9045 34.2644 48.9799 33.6462 49.7987 32.4098H49.8843V33.9111H51.7663V27.2371C51.7663 25.8367 51.3508 24.7265 50.5075 23.9316ZM45.1665 31.9179C44.7631 31.6151 44.5187 31.123 44.5187 30.5932C44.5187 30.0002 44.7876 29.5082 45.3132 29.1171C45.851 28.726 46.5232 28.5241 47.3177 28.5241C48.4178 28.5115 49.2734 28.7638 49.8845 29.2684C49.8845 30.1264 49.5545 30.8707 48.9067 31.5015C48.32 32.1071 47.5255 32.4478 46.6943 32.4478C46.1443 32.4604 45.6065 32.2711 45.1665 31.9179ZM55.9982 38.6676L62.573 23.0865H60.4344L57.3914 30.8581H57.3547L54.2384 23.0865H52.0997L56.4137 33.2173L53.9695 38.6676H55.9982Z" fill="#3C4043"/>
<path d="M27.6985 26.1149C27.6985 25.4967 27.6497 24.8785 27.5519 24.2729H19.2539V27.7677H24.0078C23.8123 28.8905 23.1768 29.8998 22.248 30.5306V32.8016H25.0833C26.7453 31.2245 27.6985 28.8905 27.6985 26.1149Z" fill="#4285F4"/>
<path d="M19.2565 34.9966C21.6273 34.9966 23.6315 34.1892 25.0858 32.8014L22.2506 30.5304C21.4562 31.0856 20.4419 31.401 19.2565 31.401C16.9589 31.401 15.0158 29.7987 14.3192 27.6539H11.3984V30.0006C12.8894 33.0663 15.9324 34.9966 19.2565 34.9966Z" fill="#34A853"/>
<path d="M14.3186 27.6538C13.9519 26.531 13.9519 25.3072 14.3186 24.1717V21.8377H11.3973C10.1384 24.3988 10.1384 27.4267 11.3973 29.9878L14.3186 27.6538Z" fill="#FBBC04"/>
<path d="M19.2565 20.4249C20.5152 20.3997 21.7251 20.8917 22.6294 21.7875L25.1469 19.1885C23.546 17.6493 21.444 16.8041 19.2565 16.8293C15.9324 16.8293 12.8894 18.7722 11.3984 21.8379L14.3192 24.1846C15.0158 22.0272 16.9589 20.4249 19.2565 20.4249Z" fill="#EA4335"/>
</svg>

<svg width="73" height="53" fill="none" xmlns="http://www.w3.org/2000/svg"><path fill="#F0F7FF" d="M.027 0H73v52.414H.027z"/><path fill-rule="evenodd" clip-rule="evenodd" d="M34.487 33.911v-6.409h3.25c1.333 0 2.457-.454 3.374-1.35l.22-.227c1.674-1.855 1.564-4.744-.22-6.46a4.597 4.597 0 00-3.373-1.375H32.52v15.821h1.967zm.001-8.353v-5.526h3.3a2.64 2.64 0 011.883.783c1.063 1.06 1.087 2.826.06 3.923a2.533 2.533 0 01-1.943.82h-3.3zm16.02-1.626c-.844-.795-1.992-1.199-3.447-1.199-1.87 0-3.275.707-4.204 2.107l1.736 1.123c.635-.959 1.503-1.438 2.603-1.438.696 0 1.368.265 1.894.744.513.454.806 1.11.806 1.804v.467c-.757-.43-1.71-.656-2.884-.656-1.368 0-2.468.328-3.287.997-.819.668-1.234 1.551-1.234 2.674a3.393 3.393 0 001.16 2.65c.77.706 1.748 1.06 2.897 1.06 1.356 0 2.432-.619 3.25-1.855h.086v1.501h1.882v-6.674c0-1.4-.415-2.51-1.258-3.305zm-5.342 7.986a1.655 1.655 0 01-.647-1.325c0-.593.269-1.085.794-1.476.538-.391 1.21-.593 2.005-.593 1.1-.012 1.955.24 2.567.744 0 .858-.33 1.603-.978 2.233a3.078 3.078 0 01-2.213.947 2.355 2.355 0 01-1.528-.53zm10.832 6.75l6.575-15.581h-2.139l-3.043 7.771h-.036l-3.117-7.771H52.1l4.314 10.13-2.445 5.45H56z" fill="#3C4043"/><path d="M27.698 26.115c0-.618-.048-1.236-.146-1.842h-8.298v3.495h4.754a4.217 4.217 0 01-1.76 2.763v2.27h2.835c1.662-1.577 2.616-3.91 2.616-6.686z" fill="#4285F4"/><path d="M19.256 34.997c2.371 0 4.375-.808 5.83-2.196l-2.835-2.27c-.795.555-1.81.87-2.995.87-2.297 0-4.24-1.602-4.937-3.747H11.4V30c1.49 3.065 4.533 4.996 7.857 4.996z" fill="#34A853"/><path d="M14.319 27.654a5.648 5.648 0 010-3.482v-2.334h-2.922a9.266 9.266 0 000 8.15l2.922-2.334z" fill="#FBBC04"/><path d="M19.256 20.425a4.655 4.655 0 013.373 1.363l2.518-2.6c-1.601-1.539-3.703-2.384-5.89-2.359-3.325 0-6.368 1.943-7.859 5.009l2.921 2.347c.697-2.158 2.64-3.76 4.937-3.76z" fill="#EA4335"/></svg>
